flaticon/medical/extraction.svg

<svg xmlns="http://www.w3.org/2000/svg" width="32" height="32" viewBox="0 0 24 24">
    <path d="M 23.601562 3.941406 L 20.132812 3.941406 L 18.476562 7.875 C 18.621094 6.71875 18.625 5.558594 18.339844 4.476562 C 18.121094 3.65625 17.492188 2.875 16.5625 2.277344 C 15.417969 1.539062 13.800781 1.457031 12.351562 2.058594 L 12.296875 2.082031 C 12.277344 2.089844 12.257812 2.097656 12.238281 2.105469 C 12.117188 2.148438 12.023438 2.183594 11.949219 2.210938 C 11.761719 2.285156 11.761719 2.285156 11.421875 2.1875 C 10.296875 1.855469 8.863281 1.527344 7.75 1.921875 C 5.652344 2.664062 5.007812 4.988281 5.304688 6.960938 C 5.351562 7.273438 5.398438 7.585938 5.445312 7.902344 C 5.5 8.28125 5.558594 8.664062 5.613281 9.046875 L 3.464844 3.941406 L 0.398438 3.941406 C 0.179688 3.941406 0 4.121094 0 4.339844 C 0 4.5625 0.179688 4.742188 0.398438 4.742188 L 2.933594 4.742188 L 5.230469 10.191406 C 4.265625 9.519531 3.105469 9.140625 1.890625 9.140625 C 1.882812 9.140625 1.875 9.140625 1.871094 9.140625 C 1.398438 9.140625 0.96875 9.363281 0.691406 9.746094 C 0.410156 10.132812 0.332031 10.628906 0.476562 11.082031 L 2.742188 18.105469 C 3.558594 20.636719 5.898438 22.339844 8.558594 22.339844 L 15.4375 22.339844 C 18.101562 22.339844 20.441406 20.636719 21.257812 18.105469 L 23.523438 11.082031 C 23.671875 10.625 23.59375 10.140625 23.3125 9.753906 C 23.027344 9.363281 22.589844 9.140625 22.109375 9.140625 L 21.210938 9.140625 C 20.195312 9.140625 19.226562 9.472656 18.433594 10.046875 L 20.664062 4.742188 L 23.601562 4.742188 C 23.820312 4.742188 24 4.5625 24 4.339844 C 24 4.121094 23.820312 3.941406 23.601562 3.941406 Z M 8.019531 2.675781 C 8.285156 2.578125 8.59375 2.539062 8.914062 2.539062 C 9.679688 2.539062 10.539062 2.761719 11.195312 2.953125 C 11.730469 3.109375 11.84375 3.109375 12.238281 2.957031 C 12.304688 2.929688 12.390625 2.898438 12.496094 2.863281 C 12.535156 2.847656 12.574219 2.832031 12.617188 2.8125 L 12.65625 2.796875 C 13.871094 2.292969 15.203125 2.355469 16.128906 2.949219 C 16.890625 3.4375 17.402344 4.054688 17.566406 4.683594 C 18.085938 6.648438 17.519531 9.007812 17.015625 11.089844 C 16.96875 11.289062 16.925781 11.472656 16.882812 11.664062 L 16.832031 11.785156 C 16.804688 11.851562 16.800781 11.914062 16.808594 11.980469 C 16.789062 12.0625 16.769531 12.144531 16.75 12.222656 L 16.683594 12.527344 L 16.683594 12.53125 C 16.597656 12.90625 16.511719 13.292969 16.40625 13.691406 C 16.265625 14.207031 16.089844 14.699219 15.828125 15.160156 C 15.660156 15.457031 15.550781 15.5 15.554688 15.5 C 15.519531 15.492188 15.230469 15.382812 14.769531 13.960938 C 14.699219 13.75 14.640625 13.527344 14.582031 13.300781 C 14.347656 12.402344 14.082031 11.382812 13.152344 10.828125 C 12.109375 10.207031 10.941406 10.582031 10.101562 11.808594 C 9.648438 12.472656 9.402344 13.199219 9.164062 13.902344 C 9.070312 14.171875 8.976562 14.441406 8.875 14.710938 C 8.726562 15.085938 8.601562 15.371094 8.359375 15.519531 C 8.265625 15.460938 8.089844 15.246094 7.789062 14.511719 L 7.757812 14.4375 C 7.742188 14.398438 7.726562 14.355469 7.710938 14.3125 L 7.707031 14.304688 C 7.65625 14.167969 7.601562 14.027344 7.550781 13.886719 C 7.542969 13.871094 7.535156 13.851562 7.53125 13.835938 C 7.476562 13.683594 7.425781 13.53125 7.371094 13.371094 C 7.363281 13.347656 7.355469 13.320312 7.347656 13.296875 C 7.246094 12.976562 7.152344 12.644531 7.058594 12.289062 L 7.054688 12.277344 C 6.679688 10.8125 6.453125 9.285156 6.234375 7.789062 C 6.191406 7.46875 6.144531 7.152344 6.097656 6.839844 C 5.847656 5.191406 6.347656 3.265625 8.019531 2.675781 Z M 15.308594 16.25 C 14.578125 17.046875 13.53125 17.539062 12.386719 17.539062 L 11.613281 17.539062 C 10.472656 17.539062 9.425781 17.046875 8.691406 16.246094 C 9.242188 15.949219 9.46875 15.386719 9.617188 15 C 9.726562 14.722656 9.824219 14.441406 9.917969 14.160156 C 10.152344 13.476562 10.371094 12.832031 10.761719 12.261719 C 11.042969 11.851562 11.796875 10.953125 12.742188 11.515625 C 13.390625 11.902344 13.59375 12.679688 13.808594 13.503906 C 13.871094 13.742188 13.933594 13.980469 14.007812 14.207031 C 14.304688 15.121094 14.691406 16.050781 15.308594 16.25 Z M 21.210938 9.941406 L 22.109375 9.941406 C 22.332031 9.941406 22.535156 10.042969 22.664062 10.222656 C 22.792969 10.402344 22.828125 10.625 22.761719 10.835938 L 20.496094 17.859375 C 19.785156 20.0625 17.753906 21.539062 15.4375 21.539062 L 8.558594 21.539062 C 6.246094 21.539062 4.214844 20.0625 3.503906 17.859375 L 1.238281 10.835938 C 1.171875 10.625 1.207031 10.398438 1.335938 10.21875 C 1.464844 10.042969 1.660156 9.941406 1.871094 9.941406 C 1.878906 9.941406 1.882812 9.941406 1.890625 9.941406 C 3.71875 9.941406 5.402344 10.929688 6.296875 12.53125 C 6.382812 12.871094 6.480469 13.210938 6.589844 13.542969 C 6.597656 13.574219 6.605469 13.601562 6.617188 13.628906 C 6.71875 13.945312 6.832031 14.261719 6.953125 14.570312 C 7.421875 16.757812 9.375 18.339844 11.613281 18.339844 L 12.386719 18.339844 C 14.671875 18.339844 16.640625 16.710938 17.070312 14.464844 L 17.171875 13.929688 C 17.171875 13.921875 17.175781 13.914062 17.175781 13.90625 C 17.230469 13.710938 17.277344 13.519531 17.324219 13.328125 C 17.328125 13.308594 17.332031 13.292969 17.335938 13.277344 C 17.375 13.09375 17.417969 12.914062 17.457031 12.730469 L 17.488281 12.585938 L 17.511719 12.480469 C 18.097656 10.960938 19.578125 9.941406 21.210938 9.941406 Z M 21.210938 9.941406"/>
</svg>

<svg xmlns="http://www.w3.org/2000/svg" width="32" height="32" viewBox="0 0 24 24">
    <path d="M23.602 3.941h-3.47l-1.655 3.934c.144-1.156.148-2.316-.137-3.398-.219-.82-.848-1.602-1.777-2.2-1.145-.738-2.762-.82-4.211-.218l-.055.023-.059.023-.289.106c-.187.074-.187.074-.527-.023-1.125-.333-2.559-.66-3.672-.266-2.098.742-2.742 3.066-2.445 5.039l.14.941c.055.38.114.762.168 1.145L3.465 3.94H.398a.4.4 0 0 0 0 .801h2.536l2.296 5.45A5.841 5.841 0 0 0 1.89 9.14h-.019c-.473 0-.902.222-1.18.605-.28.387-.359.883-.214 1.336l2.265 7.023A6.097 6.097 0 0 0 8.56 22.34h6.879a6.098 6.098 0 0 0 5.82-4.235l2.265-7.023c.149-.457.07-.941-.21-1.328a1.474 1.474 0 0 0-1.204-.613h-.898a4.741 4.741 0 0 0-2.777.906l2.23-5.305h2.938a.401.401 0 0 0 0-.8zM8.02 2.676c.265-.098.574-.137.894-.137.766 0 1.625.223 2.281.414.535.156.649.156 1.043.004a4.13 4.13 0 0 1 .258-.094c.04-.015.078-.031.121-.05l.04-.016c1.214-.504 2.546-.442 3.472.152.762.489 1.273 1.106 1.437 1.735.52 1.964-.046 4.324-.55 6.406-.047.2-.09.383-.133.574l-.051.121a.376.376 0 0 0-.023.195l-.059.243-.066.304v.004c-.086.375-.172.762-.278 1.16-.14.516-.316 1.008-.578 1.47-.168.296-.277.339-.273.339-.035-.008-.325-.117-.785-1.54-.07-.21-.13-.433-.188-.66-.234-.898-.5-1.917-1.43-2.472-1.043-.621-2.21-.246-3.05.98-.454.665-.7 1.391-.938 2.094-.094.27-.187.54-.289.809-.148.375-.273.66-.516.809-.093-.06-.27-.274-.57-1.008l-.031-.075a4.329 4.329 0 0 1-.047-.124l-.004-.008c-.05-.137-.105-.278-.156-.418a.271.271 0 0 1-.02-.051c-.054-.152-.105-.305-.16-.465l-.023-.074c-.102-.32-.196-.652-.29-1.008l-.003-.012c-.375-1.464-.602-2.992-.82-4.488-.044-.32-.09-.637-.137-.95-.25-1.648.25-3.573 1.922-4.163zm7.289 13.574a3.96 3.96 0 0 1-2.922 1.29h-.774a3.963 3.963 0 0 1-2.922-1.294c.551-.297.778-.86.926-1.246.11-.277.207-.559.301-.84.234-.683.453-1.328.844-1.898.281-.41 1.035-1.309 1.98-.746.649.386.852 1.164 1.067 1.988.062.238.125.476.199.703.297.914.683 1.844 1.3 2.043zm5.902-6.309h.898a.687.687 0 0 1 .652.895l-2.265 7.023a5.296 5.296 0 0 1-5.058 3.68h-6.88a5.295 5.295 0 0 1-5.054-3.68l-2.266-7.023a.695.695 0 0 1 .098-.617.661.661 0 0 1 .535-.278h.02c1.828 0 3.511.989 4.406 2.59a14.985 14.985 0 0 0 .32 1.098c.102.316.215.633.336.941a4.784 4.784 0 0 0 4.66 3.77h.774a4.774 4.774 0 0 0 4.683-3.875l.102-.535c0-.008.004-.016.004-.024.054-.195.101-.386.148-.578l.012-.05c.039-.184.082-.364.121-.548l.031-.144.024-.106a3.983 3.983 0 0 1 3.699-2.539zm0 0"/>
</svg>
